X: 22935
T: Larry Reynolds'
R: hornpipe
M: 4/4
K: Dmajor
|:AG|FGFE DEED|FGFE D2ag|fgfe dcAB|=cAGE FAED|
eAag faed|eAAB =c2 (3ABc|dAfd eafd|eAgf d-:|
|:fg|a2af dAfa|~e3 (3AeA gfed|Adfa dfad|(3eAA (3eAf (3AeA (3fge|
defa gfed|eAAB =c2 (3ABc|dAfd eafd|eAgf d-:|

